logos/surrealdb.svg

<?xml version="1.0" encoding="UTF-8"?>
<svg width="512px" height="111px" viewBox="0 0 512 111" version="1.1" xmlns="http://www.w3.org/2000/svg" preserveAspectRatio="xMidYMid">
    <title>SurrealDB</title>
    <defs>
        <linearGradient x1="21.2495009%" y1="26.2140821%" x2="68.2452832%" y2="73.2590608%" id="surrealDBLinearGradient-1">
            <stop stop-color="#FF00A0" offset="0%"></stop>
            <stop stop-color="#9600FF" offset="100%"></stop>
        </linearGradient>
        <linearGradient x1="31.0469515%" y1="11.7049903%" x2="68.9568365%" y2="88.3026737%" id="surrealDBLinearGradient-2">
            <stop stop-color="#FF00A0" offset="0%"></stop>
            <stop stop-color="#9600FF" offset="100%"></stop>
        </linearGradient>
    </defs>
    <g>
        <path d="M161.091458,49.9737504 C169.519682,51.3110286 177.801817,57.1883102 177.666965,65.8862376 C177.666965,71.2353505 175.396963,76.1799087 171.250277,79.652337 C156.675068,91.1596724 130.873465,84.203578 130.46891,64.8186625 L143.841692,64.8186625 C144.381098,69.7632207 148.392933,73.7750554 153.730808,73.6402038 C159.349625,73.6402038 164.294183,71.3702021 164.294183,65.8862376 C164.294183,63.3465327 162.822053,62.0092545 160.4172,60.8068278 C151.460807,57.1995479 138.222876,57.3343995 132.738912,48.3780066 C129.401335,42.3658734 132.075891,34.2073524 137.413766,29.9258145 C141.830156,26.3185346 147.572586,24.8464048 153.730808,24.8464048 C164.698737,24.7115532 176.464538,31.8024991 176.464538,42.7591905 L162.822053,42.7591905 C161.08022,36.6122057 152.39353,34.7355211 147.179269,38.0843355 C144.504712,39.8261685 143.437137,43.0288937 145.976842,45.0404298 C149.988677,48.243155 156.012048,49.1758785 161.091458,49.9737504 Z M309.102311,39.2867622 C323.003262,38.8822074 335.173618,52.2549897 332.229358,66.4256439 L297.999531,66.4256439 C301.213493,75.2471852 312.844443,77.1238698 318.31717,69.6396067 L331.420249,69.6396067 C325.936284,85.9566487 304.146515,90.3618005 292.380714,78.461148 C277.277337,63.6162359 288.638583,39.1519106 309.102311,39.2867622 Z M320.193854,58.1322714 C316.182019,47.7037487 302.011365,47.7037487 297.999531,58.1322714 L320.193854,58.1322714 Z M390.260491,24.8464048 L402.295995,24.8464048 L402.295995,85.2711531 L390.260491,85.2711531 L390.260491,24.8464048 Z M216.706499,39.2867622 L216.706499,61.6046997 C216.043479,77.5171869 194.242473,77.5171869 193.714304,61.6046997 L193.714304,39.2755245 L181.6788,39.2755245 L181.6788,61.6046997 C181.6788,64.009553 182.083354,66.4144063 182.746375,68.6956456 C185.825486,78.461148 194.91673,85.1363015 205.210402,85.1363015 C215.504073,85.1363015 224.595317,78.4499104 227.674428,68.6956456 C228.337449,66.4256439 228.742003,64.0207906 228.742003,61.6046997 L228.742003,39.2867622 L216.706499,39.2867622 Z M384.911378,62.2789576 C384.911378,49.5804333 374.482855,39.2867622 361.514628,39.2867622 C348.5464,39.2867622 338.117878,49.5804333 338.117878,62.2789576 C338.117878,74.977482 348.535163,85.2711531 361.514628,85.2711531 C365.661314,85.2711531 369.538297,84.203578 372.875874,82.3268935 L372.875874,85.2711531 L384.911378,85.2711531 L384.911378,62.2789576 Z M361.379776,74.1796101 C354.558533,74.1796101 349.209421,68.8304972 349.209421,62.144106 C349.209421,55.5925665 354.693385,50.108602 361.379776,50.108602 C368.201019,50.108602 373.550132,55.4577149 373.550132,62.144106 C373.550132,68.8304972 368.05493,74.1796101 361.379776,74.1796101 Z M257.622718,39.2867622 C247.329047,39.2867622 238.237803,45.9731533 235.158691,55.7274181 C234.495671,57.9974198 234.091116,60.4022731 234.091116,62.818364 L234.091116,85.1475392 L246.12662,85.1475392 L246.12662,62.818364 C246.396324,54.7946946 252.01514,50.7828599 257.622718,50.7828599 L257.622718,39.2867622 Z M283.28947,39.2867622 C272.995799,39.2867622 263.904555,45.9731533 260.825443,55.7274181 C260.162423,57.9974198 259.757868,60.4022731 259.757868,62.818364 L259.757868,85.1475392 L271.793372,85.1475392 L271.793372,62.818364 C272.063075,54.7946946 277.670654,50.7828599 283.28947,50.7828599 L283.28947,39.2867622 Z" fill="#000000"></path>
        <path d="M442.537956,27.1164065 C438.795824,25.6442767 434.649138,24.8464048 430.109135,24.8464048 L407.645108,24.8464048 L407.645108,85.1475392 L430.109135,85.1475392 C434.918841,85.1475392 439.200379,84.3496673 442.942511,82.8775374 C454.438608,78.461148 460.855296,67.0999018 460.720445,54.9295462 C460.855296,42.7591905 454.034054,31.5215583 442.537956,27.1164065 Z M447.887069,55.0531601 C448.010683,64.5489593 440.121865,73.2468867 430.502452,73.1120351 L419.534523,73.1120351 L419.534523,37.0055228 L430.502452,37.0055228 C440.133103,36.8706712 448.02192,45.6922125 447.887069,55.0531601 Z M504.030279,52.91801 C513.526078,45.7034501 508.446669,29.790963 498.14176,26.1724454 C495.871758,25.2397219 493.466905,24.8351672 490.9272,24.8351672 L466.05832,24.8351672 L466.05832,85.1363015 C467.53045,85.1363015 494.264777,85.1363015 494.264777,85.1363015 C499.074483,85.1363015 503.625725,83.3944685 506.963301,80.1917434 C514.47004,72.9771835 513.66093,58.2671229 504.030279,52.91801 Z M477.958973,37.0055228 L490.522645,37.0055228 C493.736608,37.0055228 496.399927,39.2755245 496.276313,42.6243389 C496.411165,45.8383017 493.736608,48.5128582 490.522645,48.3780066 L477.958973,48.3780066 L477.958973,37.0055228 Z M493.601757,73.1120351 L478.093824,73.1120351 L478.093824,60.0089559 L493.601757,60.0089559 C496.815719,59.8741043 499.490276,63.4813843 499.355424,66.6953471 C499.490276,69.7632207 496.815719,73.2468867 493.601757,73.1120351 Z" fill="url(#surrealDBLinearGradient-1)"></path>
        <path d="M47.1980552,28.9706158 L73.4154511,43.4896366 L73.4154511,37.6685431 L47.1980552,23.1832352 C43.2985969,25.3408606 24.4530877,35.7581456 20.9806593,37.6685431 C24.2058598,39.4553266 58.0760832,58.1659842 78.6634254,69.538468 L78.6634254,75.3370862 C75.865255,76.8878795 47.1980552,92.7217033 47.1980552,92.7217033 C39.354188,88.3952149 23.5653147,79.6748123 15.7326851,75.3370862 L15.7326851,57.9524692 L47.1980552,75.3370862 L52.4460295,72.4377771 L10.4847108,49.2657795 L10.4847108,78.247633 L47.1980552,98.5203215 C50.8165728,96.5200229 81.2256055,79.7197628 83.900162,78.2363954 L83.900162,66.6503966 L31.4653702,37.6685431 L47.1980552,28.9706158 Z M10.4847108,31.8699249 L10.4847108,43.4671613 L62.9195027,72.4490148 L47.1868176,81.1469421 L20.9694217,66.6279213 L20.9694217,72.4490148 L47.1868176,86.9343227 C51.086276,84.7766973 69.9317852,74.3594122 73.4042135,72.4490148 C70.1790131,70.6622313 36.3200273,51.9515736 15.7326851,40.5678522 L15.7326851,34.769234 C18.5308555,33.2184408 47.1980552,17.384617 47.1980552,17.384617 C55.0306849,21.722343 70.8195581,30.4427456 78.6634254,34.769234 L78.6634254,52.153851 L47.1980552,34.769234 L41.950081,37.6685431 L83.900162,60.8517783 L83.900162,31.8699249 L47.1980552,11.5859988 C43.5683,13.597535 13.1705049,30.3977951 10.4847108,31.8699249 Z M47.1980552,0 L0,26.0825443 L0,84.0350136 L47.1980552,110.117558 L94.3961105,84.0462512 L94.3961105,26.0825443 L47.1980552,0 Z M89.1368986,81.1357045 L47.1980552,104.31894 L5.24797424,81.1357045 L5.24797424,28.9818534 L47.1980552,5.79861821 L89.1481362,28.9818534 L89.1368986,81.1357045 Z" fill="url(#surrealDBLinearGradient-2)"></path>
    </g>
</svg>

<svg preserveAspectRatio="xMidYMid" viewBox="0 0 512 111" xmlns="http://www.w3.org/2000/svg">
  <defs>
    <linearGradient id="surrealdb_svg__a" x1="21.25%" x2="68.245%" y1="26.214%" y2="73.259%">
      <stop offset="0%" stop-color="#FF00A0"/>
      <stop offset="100%" stop-color="#9600FF"/>
    </linearGradient>
    <linearGradient id="surrealdb_svg__b" x1="31.047%" x2="68.957%" y1="11.705%" y2="88.303%">
      <stop offset="0%" stop-color="#FF00A0"/>
      <stop offset="100%" stop-color="#9600FF"/>
    </linearGradient>
  </defs>
  <path d="M161.091 49.974c8.429 1.337 16.71 7.214 16.576 15.912 0 5.35-2.27 10.294-6.417 13.766-14.575 11.508-40.377 4.552-40.781-14.833h13.373c.54 4.944 4.55 8.956 9.889 8.821 5.619 0 10.563-2.27 10.563-7.754 0-2.54-1.472-3.877-3.877-5.08-8.956-3.606-22.194-3.472-27.678-12.428-3.338-6.012-.663-14.17 4.675-18.452 4.416-3.607 10.159-5.08 16.317-5.08 10.968-.134 22.734 6.956 22.734 17.913h-13.643c-1.742-6.147-10.428-8.023-15.643-4.675-2.674 1.742-3.742 4.945-1.202 6.956 4.012 3.203 10.035 4.136 15.114 4.934Zm148.011-10.687c13.901-.405 26.072 12.968 23.127 27.139H298c3.214 8.821 14.845 10.698 20.318 3.214h13.103c-5.484 16.317-27.273 20.722-39.04 8.821-15.103-14.845-3.741-39.31 16.722-39.174Zm11.092 18.845a11.783 11.783 0 0 0-22.194 0h22.194Zm70.066-33.286h12.036v60.425H390.26V24.846Zm-173.554 14.44v22.319c-.663 15.912-22.464 15.912-22.992 0v-22.33H181.68v22.33c0 2.405.404 4.81 1.067 7.09 3.08 9.766 12.17 16.441 22.464 16.441 10.294 0 19.385-6.686 22.464-16.44.663-2.27 1.068-4.675 1.068-7.091V39.287h-12.036ZM384.911 62.28c0-12.699-10.428-22.992-23.396-22.992-12.969 0-23.397 10.293-23.397 22.992 0 12.698 10.417 22.992 23.397 22.992 4.146 0 8.023-1.067 11.36-2.944v2.944h12.036V62.28Zm-23.531 11.9c-6.821 0-12.17-5.349-12.17-12.035 0-6.551 5.483-12.035 12.17-12.035 6.821 0 12.17 5.349 12.17 12.035s-5.495 12.036-12.17 12.036ZM257.623 39.288c-10.294 0-19.385 6.686-22.464 16.44-.663 2.27-1.068 4.675-1.068 7.091v22.33h12.036v-22.33c.27-8.023 5.888-12.035 11.496-12.035V39.287Zm25.666 0c-10.293 0-19.384 6.686-22.464 16.44-.663 2.27-1.067 4.675-1.067 7.091v22.33h12.035v-22.33c.27-8.023 5.878-12.035 11.496-12.035V39.287Z"/>
  <path fill="url(#surrealdb_svg__a)" d="M442.538 27.116c-3.742-1.472-7.889-2.27-12.429-2.27h-22.464v60.302h22.464c4.81 0 9.091-.798 12.834-2.27C454.439 78.46 460.855 67.1 460.72 54.93c.135-12.17-6.686-23.408-18.182-27.814Zm5.35 27.937c.123 9.496-7.766 18.194-17.386 18.059h-10.967V37.006h10.967c9.631-.135 17.52 8.686 17.385 18.047Zm56.142-2.135c9.496-7.215 4.417-23.127-5.888-26.746-2.27-.932-4.675-1.337-7.215-1.337h-24.869v60.301h28.207c4.81 0 9.36-1.742 12.698-4.944 7.507-7.215 6.698-21.925-2.933-27.274Zm-26.07-15.912h12.564c3.214 0 5.877 2.27 5.753 5.618.135 3.214-2.54 5.889-5.753 5.754H477.96V37.006Zm15.643 36.106h-15.508V60.009h15.508c3.214-.135 5.888 3.472 5.753 6.686.135 3.068-2.54 6.552-5.753 6.417Z"/>
  <path fill="url(#surrealdb_svg__b)" d="m47.198 28.97 26.217 14.52v-5.821L47.198 23.183c-3.9 2.158-22.745 12.575-26.217 14.486 3.225 1.786 37.095 20.497 57.682 31.87v5.798c-2.798 1.55-31.465 17.385-31.465 17.385a28208.532 28208.532 0 0 1-31.465-17.385V57.952l31.465 17.385 5.248-2.9-41.961-23.171v28.982L47.198 98.52c3.619-2 34.028-18.8 36.702-20.284V66.65L31.465 37.67l15.733-8.698Zm-36.713 2.9v11.597L62.92 72.45l-15.733 8.698-26.218-14.52v5.822l26.218 14.485c3.9-2.157 22.745-12.575 26.217-14.485-3.225-1.787-37.084-20.497-57.671-31.881V34.77c2.798-1.55 31.465-17.384 31.465-17.384 7.833 4.337 23.622 13.058 31.465 17.384v17.385L47.198 34.769l-5.248 2.9L83.9 60.852V31.87L47.198 11.586A36322.77 36322.77 0 0 1 10.485 31.87ZM47.198 0 0 26.083v57.952l47.198 26.083 47.198-26.072V26.083L47.198 0Zm41.939 81.136-41.939 23.183-41.95-23.183V28.982l41.95-23.183 41.95 23.183-.011 52.154Z"/>
</svg>
